lib/brands/icons/sitecore.svg

<svg xmlns="http://www.w3.org/2000/svg" fill="none" aria-hidden="true" viewBox="0 0 48 48"><g id="sitecore-Icon"><g id="Union"><path fill="#EE3524" d="M26.7857 30.1926C25.6983 30.8015 24.4985 31.1816 23.2558 31.3435C26.0041 30.3431 28.4566 28.2432 29.4979 25.8463C30.3758 23.8227 30.2273 21.7971 29.0696 19.9696L32.8725 17.5097C33.963 19.0183 34.6547 20.7781 34.8834 22.6255H31.1661L31.1547 22.9019C31.0229 26.0972 29.4718 28.6862 26.7857 30.1926Z"/><path fill="#EE3524" d="M31.7115 23.2023H34.9396C34.9577 23.466 34.9711 23.7317 34.9711 24.0007C34.9726 25.7375 34.5647 27.4503 33.7806 29.0001L31.6205 27.6202L31.4719 27.8826C29.7187 30.9875 26.6017 32.8391 23.1293 32.8391H23.0999C21.1767 32.8331 19.3204 32.265 17.6688 31.2264C19.0163 31.7424 20.4465 32.0088 21.8893 32.0127C23.7115 32.0127 25.4962 31.5751 27.0641 30.6964C29.811 29.156 31.494 26.4345 31.7115 23.2023Z"/><path fill="#EE3524" d="M23.1293 33.4153H23.0985C19.6389 33.4053 16.388 31.6795 14.0747 28.7077C15.8326 32.4564 19.6195 35.0575 23.9999 35.0575C28.0605 35.0575 31.6098 32.8211 33.5069 29.508L31.8179 28.4293C29.9362 31.559 26.7121 33.4153 23.1293 33.4153Z"/><path fill="#EE3524" fill-rule="evenodd" d="M8.12305 24C8.12305 15.1635 15.231 8 23.9999 8C32.7688 8 39.8761 15.1629 39.8761 24C39.8761 32.8371 32.7681 40 23.9999 40C15.231 40 8.12305 32.8365 8.12305 24ZM12.4553 24C12.4553 30.4254 17.624 35.6343 23.9999 35.6343C30.3752 35.6343 35.5432 30.4254 35.5432 24C35.5432 17.5752 30.3752 12.3664 23.9999 12.3664C17.624 12.3664 12.4553 17.5752 12.4553 24Z" clip-rule="evenodd"/></g></g></svg>

<svg xmlns="http://www.w3.org/2000/svg" fill="none" aria-hidden="true" viewBox="0 0 48 48"><g fill="#EE3524"><path d="M26.786 30.193a9.8 9.8 0 0 1-3.53 1.15c2.748-1 5.2-3.1 6.242-5.497.878-2.023.73-4.049-.428-5.876l3.803-2.46a11.05 11.05 0 0 1 2.01 5.115h-3.717l-.011.277c-.132 3.195-1.683 5.784-4.37 7.29Z"/><path d="M31.712 23.202h3.228A11.053 11.053 0 0 1 33.78 29l-2.16-1.38-.15.263c-1.752 3.105-4.87 4.956-8.342 4.956h-.03c-1.922-.006-3.779-.574-5.43-1.613a11.89 11.89 0 0 0 4.22.787c1.823 0 3.607-.438 5.175-1.317 2.747-1.54 4.43-4.262 4.648-7.494Z"/><path d="M23.13 33.415h-.031c-3.46-.01-6.711-1.735-9.024-4.707 1.758 3.748 5.544 6.35 9.925 6.35 4.06 0 7.61-2.237 9.507-5.55l-1.69-1.079c-1.88 3.13-5.105 4.986-8.688 4.986Z"/><path fill-rule="evenodd" d="M8.123 24c0-8.836 7.108-16 15.877-16 8.769 0 15.876 7.163 15.876 16S32.768 40 24 40c-8.77 0-15.877-7.163-15.877-16Zm4.332 0c0 6.425 5.169 11.634 11.545 11.634 6.375 0 11.543-5.209 11.543-11.634 0-6.425-5.168-11.634-11.543-11.634-6.376 0-11.545 5.21-11.545 11.634Z" clip-rule="evenodd"/></g></svg>
